NeoWeb/wwwroot/images/wallets/logo/magnum.svg

<svg fill="none" height="285" viewBox="0 0 300 285" width="300" xmlns="http://www.w3.org/2000/svg"><g clip-rule="evenodd" fill-rule="evenodd"><g fill="#152f5a"><path d="m128.3 1.3c.2-.599997-.3-1.3-1-1.3h-69.2c-.4 0-.8001.200012-.9001.700012l-30.0999 92.799988c-.1.4 0 .8.4 1.1l56 40.7c.5.4 1.3.2 1.5-.5zm-57.8 30.1c1.9-5.9 8.2999-9.2 14.1999-7.2 6 1.9 9.2001 8.3 7.3001 14.3-1.9 5.9-8.3 9.2-14.2 7.2-5.9-1.9-9.2-8.3-7.3-14.3z"/><path d="m23.4 108.9c-.6-.4-1.3-.1-1.5.5l-21.399974 65.8c-.1.4-.000012.8.299988 1.1l78.999986 57.4c.4.3.8.2 1.2 0l56-40.7c.5-.4.6-1.2 0-1.6zm10.9 64.2c-5.1-3.7-6.2-10.7-2.5-15.8s10.8-6.2 15.8-2.5 6.2 10.7 2.5 15.8-10.8 6.2-15.8 2.5z"/><path d="m93.3 241.9c-.5.4-.5 1.2 0 1.6l56 40.7c.4.3.8.3 1.1 0l79-57.4c.4-.3.5-.7.3-1.1l-21.4-65.8c-.2-.6-1-.9-1.5-.5zm64.5 9.5c-5 3.7-12.1 2.5-15.8-2.5-3.7-5.1-2.6-12.1 2.5-15.8s12.1-2.5 15.8 2.5c3.7 5.1 2.6 12.1-2.5 15.8z"/><path d="m241.5 216.5c.2.6 1 .9 1.5.5l56-40.7c.3-.3.5-.7.4-1.1l-30.3-92.9c-.1-.4-.5-.7-.9-.7h-69.2c-.7 0-1.2.6-1 1.3zm29-58.4c1.9 5.9-1.3 12.3-7.3 14.2s-12.3-1.3-14.3-7.2c-1.9-5.9 1.3-12.3 7.3-14.2 5.9-2 12.3 1.3 14.3 7.2z"/></g><path d="m263.1 67.8c.7 0 1.1-.7.9-1.3l-21.4-65.799988c-.1-.4-.5-.700012-.9-.700012h-97.7c-.4 0-.8.300012-.9.700012l-21.4 65.799988c-.2.6.2 1.3.9 1.3zm-46.6-45.7c6.2 0 11.3 5.1 11.3 11.3 0 6.3-5.1 11.3-11.3 11.3s-11.3-5.1-11.3-11.3 5.1-11.2 11.3-11.3z" fill="#f89f36"/><path d="m149.3 155.8c.4.3.8.3 1.2 0l11.8-8.8c.3-.2.5-.6.4-1l-4.9-21c-.1-.4 0-.7.3-1 1.3-1.3 2.4-2.9 3-4.8 2-6.2-1.4-12.8-7.5-14.8s-12.7 1.3-14.7 7.5c-1.4 4.4-.1 9 3 12.1.3.3.4.6.3 1l-4.9 21c-.1.4.1.8.4 1z" fill="#f89f36"/></g></svg>

<svg width="300" height="285" viewBox="0 0 300 285" fill="none" xmlns="http://www.w3.org/2000/svg">
<path fill-rule="evenodd" clip-rule="evenodd" d="M128.3 1.3C128.5 0.700003 128 0 127.3 0H58.1C57.7 0 57.2999 0.200012 57.1999 0.700012L27.1 93.5C27 93.9 27.1 94.3 27.5 94.6L83.5 135.3C84 135.7 84.8 135.5 85 134.8L128.3 1.3ZM70.5 31.4C72.4 25.5 78.7999 22.2 84.6999 24.2C90.6999 26.1 93.9 32.5 92 38.5C90.1 44.4 83.7 47.7 77.8 45.7C71.9 43.8 68.6 37.4 70.5 31.4Z" fill="#152F5A"/>
<path fill-rule="evenodd" clip-rule="evenodd" d="M23.4 108.9C22.8 108.5 22.1 108.8 21.9 109.4L0.500026 175.2C0.400026 175.6 0.500014 176 0.800014 176.3L79.8 233.7C80.2 234 80.6 233.9 81 233.7L137 193C137.5 192.6 137.6 191.8 137 191.4L23.4 108.9ZM34.3 173.1C29.2 169.4 28.1 162.4 31.8 157.3C35.5 152.2 42.6 151.1 47.6 154.8C52.6 158.5 53.8 165.5 50.1 170.6C46.4 175.7 39.3 176.8 34.3 173.1Z" fill="#152F5A"/>
<path fill-rule="evenodd" clip-rule="evenodd" d="M93.3 241.9C92.8 242.3 92.8 243.1 93.3 243.5L149.3 284.2C149.7 284.5 150.1 284.5 150.4 284.2L229.4 226.8C229.8 226.5 229.9 226.1 229.7 225.7L208.3 159.9C208.1 159.3 207.3 159 206.8 159.4L93.3 241.9ZM157.8 251.4C152.8 255.1 145.7 253.9 142 248.9C138.3 243.8 139.4 236.8 144.5 233.1C149.6 229.4 156.6 230.6 160.3 235.6C164 240.7 162.9 247.7 157.8 251.4Z" fill="#152F5A"/>
<path fill-rule="evenodd" clip-rule="evenodd" d="M241.5 216.5C241.7 217.1 242.5 217.4 243 217L299 176.3C299.3 176 299.5 175.6 299.4 175.2L269.1 82.3C269 81.9 268.6 81.6 268.2 81.6H199C198.3 81.6 197.8 82.2 198 82.9L241.5 216.5ZM270.5 158.1C272.4 164 269.2 170.4 263.2 172.3C257.2 174.2 250.9 171 248.9 165.1C247 159.2 250.2 152.8 256.2 150.9C262.1 148.9 268.5 152.2 270.5 158.1Z" fill="#152F5A"/>
<path fill-rule="evenodd" clip-rule="evenodd" d="M263.1 67.8C263.8 67.8 264.2 67.1 264 66.5L242.6 0.700012C242.5 0.300012 242.1 0 241.7 0H144C143.6 0 143.2 0.300012 143.1 0.700012L121.7 66.5C121.5 67.1 121.9 67.8 122.6 67.8H263.1ZM216.5 22.1C222.7 22.1 227.8 27.2 227.8 33.4C227.8 39.7 222.7 44.7 216.5 44.7C210.3 44.7 205.2 39.6 205.2 33.4C205.2 27.2 210.3 22.2 216.5 22.1Z" fill="#F89F36"/>
<path fill-rule="evenodd" clip-rule="evenodd" d="M149.3 155.8C149.7 156.1 150.1 156.1 150.5 155.8L162.3 147C162.6 146.8 162.8 146.4 162.7 146L157.8 125C157.7 124.6 157.8 124.3 158.1 124C159.4 122.7 160.5 121.1 161.1 119.2C163.1 113 159.7 106.4 153.6 104.4C147.5 102.4 140.9 105.7 138.9 111.9C137.5 116.3 138.8 120.9 141.9 124C142.2 124.3 142.3 124.6 142.2 125L137.3 146C137.2 146.4 137.4 146.8 137.7 147L149.3 155.8Z" fill="#F89F36"/>
</svg>
